src/icons/add-cost.svg

<?xml version="1.0" encoding="UTF-8"?>
<svg xmlns="http://www.w3.org/2000/svg" xmlns:xlink="http://www.w3.org/1999/xlink" width="32" height="32" viewBox="0 0 32 32" version="1.1">
<g id="surface1">
<path style=" stroke:none;fill-rule:nonzero;fill:rgb(0%,0%,0%);fill-opacity:1;" d="M 16 1.28125 C 7.882812 1.28125 1.28125 7.882812 1.28125 16 C 1.28125 24.117188 7.882812 30.71875 16 30.71875 C 17.703125 30.71875 19.335938 30.425781 20.859375 29.890625 C 20.933594 29.972656 21.003906 30.054688 21.082031 30.132812 C 23.570312 32.621094 27.644531 32.621094 30.132812 30.132812 C 32.621094 27.644531 32.621094 23.570312 30.132812 21.082031 C 30.054688 21.003906 29.972656 20.9375 29.890625 20.863281 C 30.425781 19.339844 30.71875 17.703125 30.71875 16 C 30.71875 7.882812 24.117188 1.28125 16 1.28125 Z M 15.359375 6.398438 L 16.671875 6.398438 L 16.671875 8.191406 C 19.746094 8.320312 21.023438 10.945312 20.894531 12.734375 L 19.550781 12.734375 C 19.488281 11.648438 19.105469 9.214844 16.03125 9.214844 C 13.023438 9.214844 12.449219 10.945312 12.449219 12.417969 C 12.449219 16.832031 21.214844 13.886719 21.214844 19.648438 C 21.214844 20.289062 20.929688 23.488281 16.640625 23.808594 L 16.640625 25.601562 L 15.359375 25.601562 L 15.359375 23.808594 C 13.632812 23.617188 10.910156 23.039062 10.785156 18.753906 L 12.128906 18.753906 C 12 22.785156 15.90625 22.785156 16.03125 22.785156 C 19.808594 22.785156 19.9375 20.222656 19.9375 19.648438 C 19.9375 15.101562 11.167969 18.304688 11.167969 12.289062 C 11.167969 11.070312 11.777344 8.382812 15.359375 8.191406 Z M 25.609375 20.492188 C 26.917969 20.492188 28.234375 20.992188 29.230469 21.988281 C 31.21875 23.980469 31.21875 27.238281 29.230469 29.230469 C 27.238281 31.21875 23.980469 31.21875 21.988281 29.230469 C 19.996094 27.238281 19.996094 23.980469 21.988281 21.988281 C 22.984375 20.992188 24.296875 20.492188 25.609375 20.492188 Z M 25.609375 21.804688 C 25.246094 21.804688 24.972656 22.078125 24.972656 22.441406 L 24.972656 24.972656 L 22.441406 24.972656 C 22.078125 24.972656 21.804688 25.246094 21.804688 25.609375 C 21.804688 25.96875 22.078125 26.242188 22.441406 26.242188 L 24.972656 26.242188 L 24.972656 28.777344 C 24.972656 29.136719 25.246094 29.410156 25.609375 29.410156 C 25.789062 29.410156 25.96875 29.320312 26.058594 29.230469 C 26.148438 29.136719 26.242188 28.957031 26.242188 28.777344 L 26.242188 26.242188 L 28.777344 26.242188 C 28.957031 26.242188 29.136719 26.152344 29.230469 26.058594 C 29.320312 25.96875 29.410156 25.789062 29.410156 25.609375 C 29.410156 25.246094 29.136719 24.972656 28.777344 24.972656 L 26.242188 24.972656 L 26.242188 22.441406 C 26.242188 22.078125 25.96875 21.804688 25.609375 21.804688 Z M 25.609375 21.804688 "/>
</g>
</svg>

<svg role="img" viewBox="0 0 32 32" xmlns="http://www.w3.org/2000/svg"><path d="M16 1.281C7.883 1.281 1.281 7.883 1.281 16c0 8.117 6.602 14.719 14.719 14.719 1.703 0 3.336-.293 4.86-.828.074.082.144.164.222.242 2.488 2.488 6.563 2.488 9.05 0 2.49-2.488 2.49-6.563 0-9.051-.077-.078-.16-.145-.241-.219.535-1.523.828-3.16.828-4.863 0-8.117-6.602-14.719-14.719-14.719m-.64 5.117h1.312v1.793c3.074.13 4.351 2.754 4.223 4.543H19.55c-.063-1.086-.446-3.52-3.52-3.52-3.008 0-3.582 1.731-3.582 3.204 0 4.414 8.766 1.469 8.766 7.23 0 .641-.285 3.84-4.574 4.16v1.794h-1.282v-1.793c-1.726-.192-4.449-.77-4.574-5.055h1.344c-.129 4.031 3.777 4.031 3.902 4.031 3.778 0 3.907-2.562 3.907-3.137 0-4.546-8.77-1.343-8.77-7.359 0-1.219.61-3.906 4.191-4.098Zm10.25 14.094c1.308 0 2.624.5 3.62 1.496 1.989 1.992 1.989 5.25 0 7.242-1.992 1.989-5.25 1.989-7.242 0a5.135 5.135 0 0 1 0-7.242 5.107 5.107 0 0 1 3.621-1.496m0 1.313a.622.622 0 0 0-.637.636v2.532H22.44a.622.622 0 0 0-.636.636c0 .36.273.633.636.633h2.532v2.535c0 .36.273.633.636.633.18 0 .36-.09.45-.18a.708.708 0 0 0 .183-.453v-2.535h2.535c.18 0 .36-.09.453-.183.09-.09.18-.27.18-.45a.621.621 0 0 0-.633-.636h-2.535V22.44a.621.621 0 0 0-.633-.636m0 0" style="stroke:none;fill-rule:nonzero;fill:rgb(0%,0%,0%);fill-opacity:1"/></svg>
